X:1
T:Cheerful Giving
T:Cheerful Giving
T:James Henry Fillmore, Sr.
T:Palmer Hartsough, 1896
T:Public Domain Courtesy of the Cyber Hymnal™
T:Public Domain Courtesy of the Cyber Hymnal™
C:James Henry Fillmore, Sr.
Z:Public Domain
Z:Courtesy of the Cyber Hymnal™
%%score ( 1 2 ) ( 3 4 )
L:1/8
Q:1/4=92
M:6/8
K:Eb
V:1 treble 
V:2 treble 
V:3 bass 
V:4 bass 
V:1
 E>[EF][EG] [EA]2 [EG] | [EG]2 [DF] [DF]2 z | [DB]3 [DF]>[EG][FA] | [EG]3- [EG]2 z | %4
w: 1.~Give as the Lord hath|pros- pered thee,|Give, give to the|Lord; *|
w: 2.~Give to the poor a-|long the way,|Give, give to the|Lord; *|
w: 3.~Give, tho’ so poor thy|gift may seem,|Give, give to the|Lord; *|
 E>[EF][EG] [EA]2 [EG] | [EG]2 [DF] [DF]2 z | [DB]3 [DF][DG][DF] | E3- E2 z | %8
w: Give with a will- ing|mind and free,|Give, give to the|Lord; *|
w: Give to the hea- then|far a- way,|Give, give to the|Lord; *|
w: Give but the cup in|Je- sus’ name,|Give, give to the|Lord; *|
 [Ec]>[EB][EA] [Ee]2 [Ac] | [Ac]2 [GB] [GB]2 z | [FA]>[EG][DF] [GB]2 [FA] | [FA]2 [EG] [EG]2 z | %12
w: He hath sup- plied thee|o’er and o’er,|Blessed thee in bas- ket|and in store,|
w: Give to His nee- dy|as they cry,|Give to His peo- ple|ere they die,|
w: Cheer- ful then give the|good thou hast,|Fear- less thy bread on|wa- ters cast,|
 [Ec]>[EB][EA] [Ee]2 [Ac] | [Ac]2 [GB] [GB]2 [Gc] | [Fd]3 [Ec]3 | [DB]3- [DB]2 || %16
w: Prom- ised to fill thee|more and more, Thy|gra- cious|Lord. *|
w: Give to His Gos- pel|that it fly, O|give, give,|give. *|
w: It will re- turn to|thee at last In|har- vest|great. *|
"^Refrain" B3 [EG]>[EF]E | [EG]2 [DF] [DF]2 z | B3 [DF]>[EG][FA] | [FA]2 [EG] [EG]2 z | %20
w: ||||
w: Give, give with a|will- ing hand,|Give, give with a|lib- eral hand,|
w: ||||
 e3- [Ge][Ae][Be] | [ce]2 [Bd] [FA]2 [EF] | [DB]3 [FA]3 | [EG]3- [EG]2 z | e3- [Ge][Ae][Be] | %25
w: |||||
w: Give at His blest|com- mand, Who pros-|pered thee,|Give *|at His blest com-|
w: |||||
 [ce]2 [Ac] [FA]2 [EF] | [DB]3 [B,D]3 | [B,E]3- [B,E]2 z |] %28
w: |||
w: mand, Who pros- pered|thee. *||
w: |||
V:2
 E3/2 x9/2 | x6 | x6 | x6 | E3/2 x9/2 | x6 | x6 | E3- E2 x | x6 | x6 | x6 | x6 | x6 | x6 | x6 | %15
 x5 || x5 E | x6 | x6 | x6 | x6 | x6 | x6 | x6 | x6 | x6 | x6 | x6 |] %28
V:3
 [E,G,]>[E,A,][E,B,] [E,C]2 [E,B,] | [B,,B,]2 [B,,B,] [B,,B,]2 z | %2
 [B,,F,]3 [B,,B,]>[B,,B,][B,,B,] | [E,B,]3- [E,B,]2 z | [E,G,]>[E,A,][E,B,] [E,C]2 [E,B,] | %5
 [B,,B,]2 [B,,B,] [B,,B,]2 z | [B,,F,]3 [B,,A,][B,,B,][B,,A,] | [E,G,]3- [E,G,]2 z | %8
 A,>[A,B,][A,C] [A,C]2 [A,E] | [E,E]2 [E,E] [E,E]2 z | [B,,D]>[B,,B,][B,,B,] [B,,D]2 [B,,B,] | %11
 [E,B,]2 [E,B,] [E,B,]2 z | A,>[A,B,][A,C] [A,C]2 [A,E] | [E,E]2 [E,E] [E,E]2 [E,B,] | %14
 [F,B,]3 [F,=A,]3 | [B,,B,]3- [B,,B,]2 || z3 [E,B,]>[E,A,][E,G,] | [B,,B,]2 [B,,B,] [B,,B,]2 z | %18
 z3 [B,,B,]>[B,,B,][B,,B,] | [E,B,]2 [E,B,] [E,B,]2 z | z3 [E,B,][F,B,][G,E] | %21
 [A,E]2 [A,E] [A,C]2 [=A,C] | B,3 [B,,B,]3 | [E,B,]3- [E,B,]2 z | z3 [E,B,][F,B,][G,E] | %25
 [A,E]2 [A,E] [A,C]2 [=A,C] | B,3 [B,,A,]3 | [E,G,]3- [E,G,]2 z |] %28
V:4
 x6 | x6 | x6 | x6 | x6 | x6 | x6 | x6 | A,3/2 x9/2 | x6 | x6 | x6 | A,3/2 x9/2 | x6 | x6 | x5 || %16
 x6 | x6 | x6 | x6 | x6 | x6 | B,3 x3 | x6 | x6 | x6 | B,3 x3 | x6 |] %28

